resources/svg/regular/server.svg

<svg xmlns="http://www.w3.org/2000/svg" fill="currentColor" stroke="none" viewBox="0 0 24 24"><path fill="none" d="M4 15v4h16.002L20 15H4zM16 18h-2v-2h2V18zM19 18h-2v-2h2V18zM4 5v4h16.002L20 5H4zM16 8h-2V6h2V8zM19 8h-2V6h2V8z"/><path d="M20 3H4C2.897 3 2 3.897 2 5v4c0 1.103.897 2 2 2h16c1.103 0 2-.897 2-2V5C22 3.897 21.103 3 20 3zM4 9V5h16l.002 4H4zM20 13H4c-1.103 0-2 .897-2 2v4c0 1.103.897 2 2 2h16c1.103 0 2-.897 2-2v-4C22 13.897 21.103 13 20 13zM4 19v-4h16l.002 4H4z"/><path d="M17 6H19V8H17zM14 6H16V8H14zM17 16H19V18H17zM14 16H16V18H14z"/></svg>

<svg xmlns="http://www.w3.org/2000/svg" fill="currentColor" stroke="none" viewBox="0 0 24 24"><path d="M20 3H4a2 2 0 0 0-2 2v4a2 2 0 0 0 2 2h16a2 2 0 0 0 2-2V5a2 2 0 0 0-2-2zM4 9V5h16v4zm16 4H4a2 2 0 0 0-2 2v4a2 2 0 0 0 2 2h16a2 2 0 0 0 2-2v-4a2 2 0 0 0-2-2zM4 19v-4h16v4z"/><path d="M17 6h2v2h-2zm-3 0h2v2h-2zm3 10h2v2h-2zm-3 0h2v2h-2z"/></svg>
